en/_assets/datalens/formula-dataset.svg

<svg width="20" height="20" viewBox="0 0 20 20" fill="none" xmlns="http://www.w3.org/2000/svg">
    <rect opacity="0.01" width="20" height="20" rx="1.66667" fill="currentColor"/>
    <path d="M5.21118 15.5V5.35921H12.1631V7.07471H7.25871V9.47502H11.4921V11.1905H7.25871V15.5H5.21118Z" fill="currentColor"/>
    <path fill-rule="evenodd" clip-rule="evenodd" d="M12.1479 12.4049H13.0259L13.9529 13.8088L14.8912 12.4049L15.7165 12.4235L14.3561 14.3488L15.7768 16.3932H14.9101L13.9077 14.8962L12.9355 16.3932H12.0763L13.497 14.3488L12.1479 12.4049Z" fill="currentColor" stroke="currentColor" stroke-width="0.5"/>
</svg>

<svg xmlns="http://www.w3.org/2000/svg" width="20" height="20" fill="none" viewBox="0 0 20 20">
    <rect width="20" height="20" fill="currentColor" opacity=".01" rx="1.667"/>
    <path fill="currentColor" d="M5.211 15.5V5.36h6.952v1.715H7.26v2.4h4.233v1.716H7.26V15.5H5.21Z"/>
    <path fill="currentColor" fill-rule="evenodd" stroke="currentColor" stroke-width=".5" d="M12.148 12.405h.878l.927 1.404.938-1.404.825.019-1.36 1.925 1.42 2.044h-.866l-1.002-1.497-.973 1.497h-.859l1.421-2.044-1.35-1.944Z" clip-rule="evenodd"/>
</svg>
